X:10010027
T:Da\~ns Kef K  Em
G:Kazimodal
R:Gavotte comme da\~ns kef
C:Traditionnel, arrangement Ronan Keryell http://kazimodal.trad.org
Q:1/4=164
M:4/4
P:A3
K:Em
P:A
|| "D"FG AG F>E "Bm"D2 | DG F>G "C"E2 "Em"E>E |\
	"Am"FG AG F>E "Bm"D2 | DG F>G "Em"E2 E>E ||
	|:"Em"E>B BA "G"B2 B>A | GB "D" AB/2A/2 "Em"G2 GE |\
	"D"F>G ""AG F>E "Bm"D2 | DG "D"F>G "Em"E2 ""E>E :|

